icons/link-chart-from-template-16.svg

<?xml version="1.0" encoding="UTF-8"?><svg id="icons" xmlns="http://www.w3.org/2000/svg" viewBox="0 0 16 16"><defs><style>.cls-1{fill:none;}.cls-1,.cls-2{stroke-width:0px;}</style></defs><path class="cls-2" d="M8,7h-3v-1h3v1ZM5,10h1.20032c.20502-.31335.48792-.55884.79968-.7652v-.2348h-2v1ZM8,3h-3v1h3v-1ZM6.20032,13H1.83331c-.46021,0-.83331-.40704-.83331-.90912V1.90906c0-.50208.37311-.90906.83331-.90906h6.33337c.46021,0,.83331.40698.83331.90906v6.88928c.14105.02606.28009.06049.41455.10791l.33838-.28223c-.00195-.04102-.00293-.08203-.00293-.12402,0-.40424.09277-.78528.25-1.13129V1.79486c0-.98865-.74707-1.79486-1.66669-1.79486H1.66669C.74707,0,0,.80621,0,1.79486v10.41028c0,.9903.74707,1.79486,1.66669,1.79486h5.70203c-.47809-.21729-.8833-.56433-1.1684-1ZM16,11.5c0,.82715-.67285,1.5-1.5,1.5-.65131,0-1.20142-.41974-1.4082-1.00098h-3.06567l1.57178,1.3103c.25183-.19135.56213-.30933.9021-.30933.82715,0,1.5.67285,1.5,1.5s-.67285,1.5-1.5,1.5-1.5-.67285-1.5-1.5c0-.21521.04736-.41888.12933-.60406l-1.58606-1.32178c-.27026.26251-.63757.42584-1.04327.42584-.82715,0-1.5-.67285-1.5-1.5s.67285-1.5,1.5-1.5c.4057,0,.77301.16333,1.04327.42584l1.58606-1.32172c-.08197-.18518-.12933-.38892-.12933-.60413,0-.82715.67285-1.5,1.5-1.5s1.5.67285,1.5,1.5-.67285,1.5-1.5,1.5c-.34009,0-.65045-.1181-.90234-.30957l-1.57153,1.30957h3.06598c.20709-.58075.7569-1,1.4079-1,.82715,0,1.5.67285,1.5,1.5ZM12,9h1v-1h-1v1ZM9,11h-1v1h1v-1ZM12,15h1v-1h-1v1ZM15,11h-1v1h1v-1ZM4,3h-2v2h2v-2ZM2,11h2v-2h-2v2ZM4,6h-2v2h2v-2Z"/><rect class="cls-1" x="0" width="16" height="16"/></svg>

<svg xmlns="http://www.w3.org/2000/svg" viewBox="0 0 16 16"><path d="M8 7H5V6h3v1zm-3 3h1.2c.205-.313.488-.559.8-.765V9H5v1zm3-7H5v1h3V3zM6.2 13H1.833c-.46 0-.833-.407-.833-.91V1.91c0-.503.373-.91.833-.91h6.334c.46 0 .833.407.833.91v6.888c.141.026.28.06.415.108l.338-.282A2.725 2.725 0 0 1 10 7.369V1.795C10 .806 9.253 0 8.333 0H1.667C.747 0 0 .806 0 1.795v10.41C0 13.195.747 14 1.667 14h5.702A2.76 2.76 0 0 1 6.2 13zm9.8-1.5c0 .827-.673 1.5-1.5 1.5-.651 0-1.201-.42-1.408-1.001h-3.066l1.572 1.31c.252-.191.562-.309.902-.309.827 0 1.5.673 1.5 1.5s-.673 1.5-1.5 1.5-1.5-.673-1.5-1.5c0-.215.047-.419.13-.604l-1.587-1.322A1.49 1.49 0 0 1 8.5 13c-.827 0-1.5-.673-1.5-1.5S7.673 10 8.5 10c.406 0 .773.163 1.043.426l1.586-1.322A1.488 1.488 0 0 1 11 8.5c0-.827.673-1.5 1.5-1.5s1.5.673 1.5 1.5-.673 1.5-1.5 1.5c-.34 0-.65-.118-.902-.31L10.026 11h3.066c.207-.58.757-1 1.408-1 .827 0 1.5.673 1.5 1.5zM12 9h1V8h-1v1zm-3 2H8v1h1v-1zm3 4h1v-1h-1v1zm3-4h-1v1h1v-1zM4 3H2v2h2V3zm-2 8h2V9H2v2zm2-5H2v2h2V6z" stroke-width="0"/><path stroke-width="0" fill="none" d="M0 0h16v16H0z"/></svg>
